X: 1
T: The Bloom Of Youth
R: reel
M: 4/4
L: 1/8
K: Gmaj
G2DG EGDE|G2BG AE~E2|G2DG EGAB|1 cedc BGAF:|2 cedc BG~G2||
gd~d2 eB~B2|cBAc BE~E2|g2gd edBA|Bdgd BG~G2|
g2bg eB~B2|cBAc BG~G2|c2cB cdef|gedc BGAF||


Tune 1119	Setting 14383

